cviceni/optimization-co-pripomina-pomnik/assets/img/icons/audio-mic.svg

<svg xmlns="http://www.w3.org/2000/svg" viewBox="0 0 376.072 376.072"><path d="M259.261 200.452H116.32c-9.781 0-13.331 6.863-13.331 11.477v17.937c0 22.139 18.011 40.149 40.15 40.149h27.719v72.671c0 2.757-2.243 5-5 5H138.95c-8.271 0-15 6.367-15 14.193s6.729 14.193 15 14.193h98.17c8.271 0 15-6.367 15-14.193s-6.729-14.193-15-14.193h-26.907c-2.757 0-5-2.243-5-5v-72.671h27.719c22.139 0 40.15-18.011 40.15-40.149v-17.424c.001-4.82-3.68-11.99-13.821-11.99zM232.933 0h-89.794c-22.139 0-40.15 18.011-40.15 40.149v128.676c0 3.92 2.983 10.141 10.988 10.141h145.504c9.979 0 13.602-7.466 13.602-12.484V40.149C273.083 18.011 255.072 0 232.933 0zM131.534 147.504c-7.347 0-13.303-5.956-13.303-13.303s5.956-13.303 13.303-13.303 13.303 5.956 13.303 13.303-5.956 13.303-13.303 13.303zm0-44.909c-7.347 0-13.303-5.956-13.303-13.303s5.956-13.303 13.303-13.303 13.303 5.956 13.303 13.303-5.956 13.303-13.303 13.303zm0-44.909c-7.347 0-13.303-5.956-13.303-13.303s5.956-13.303 13.303-13.303 13.303 5.956 13.303 13.303-5.956 13.303-13.303 13.303zm37.668 89.818c-7.347 0-13.303-5.956-13.303-13.303s5.956-13.303 13.303-13.303 13.303 5.956 13.303 13.303-5.956 13.303-13.303 13.303zm0-44.909c-7.347 0-13.303-5.956-13.303-13.303s5.956-13.303 13.303-13.303 13.303 5.956 13.303 13.303-5.956 13.303-13.303 13.303zm0-44.909c-7.347 0-13.303-5.956-13.303-13.303s5.956-13.303 13.303-13.303 13.303 5.956 13.303 13.303-5.956 13.303-13.303 13.303zm37.668 89.818c-7.347 0-13.303-5.956-13.303-13.303s5.956-13.303 13.303-13.303 13.303 5.956 13.303 13.303-5.956 13.303-13.303 13.303zm0-44.909c-7.347 0-13.303-5.956-13.303-13.303s5.956-13.303 13.303-13.303 13.303 5.956 13.303 13.303-5.956 13.303-13.303 13.303zm0-44.909c-7.347 0-13.303-5.956-13.303-13.303s5.956-13.303 13.303-13.303 13.303 5.956 13.303 13.303-5.956 13.303-13.303 13.303zm37.668 89.818c-7.347 0-13.303-5.956-13.303-13.303s5.956-13.303 13.303-13.303 13.303 5.956 13.303 13.303-5.956 13.303-13.303 13.303zm0-44.909c-7.347 0-13.303-5.956-13.303-13.303s5.956-13.303 13.303-13.303 13.303 5.956 13.303 13.303-5.956 13.303-13.303 13.303zm0-44.909c-7.347 0-13.303-5.956-13.303-13.303s5.956-13.303 13.303-13.303 13.303 5.956 13.303 13.303-5.956 13.303-13.303 13.303z"/></svg>

<?xml version="1.0" encoding="iso-8859-1"?>
<!-- Generator: Adobe Illustrator 17.1.0, SVG Export Plug-In . SVG Version: 6.00 Build 0)  -->
<!DOCTYPE svg PUBLIC "-//W3C//DTD SVG 1.1//EN" "http://www.w3.org/Graphics/SVG/1.1/DTD/svg11.dtd">
<svg version="1.1" id="Capa_1" xmlns="http://www.w3.org/2000/svg" xmlns:xlink="http://www.w3.org/1999/xlink" x="0px" y="0px"
	 viewBox="0 0 376.072 376.072" style="enable-background:new 0 0 376.072 376.072;" xml:space="preserve">
<g>
	<path d="M259.261,200.452H116.32c-9.781,0-13.331,6.863-13.331,11.477v17.937c0,22.139,18.011,40.149,40.15,40.149h27.719v72.671
		c0,2.757-2.243,5-5,5H138.95c-8.271,0-15,6.367-15,14.193s6.729,14.193,15,14.193h98.17c8.271,0,15-6.367,15-14.193
		s-6.729-14.193-15-14.193h-26.907c-2.757,0-5-2.243-5-5v-72.671h27.719c22.139,0,40.15-18.011,40.15-40.149v-17.424
		C273.083,207.622,269.402,200.452,259.261,200.452z"/>
	<path d="M232.933,0h-89.794c-22.139,0-40.15,18.011-40.15,40.149v128.676c0,3.92,2.983,10.141,10.988,10.141h145.504
		c9.979,0,13.602-7.466,13.602-12.484V40.149C273.083,18.011,255.072,0,232.933,0z M131.534,147.504
		c-7.347,0-13.303-5.956-13.303-13.303c0-7.347,5.956-13.303,13.303-13.303c7.347,0,13.303,5.956,13.303,13.303
		C144.837,141.548,138.881,147.504,131.534,147.504z M131.534,102.595c-7.347,0-13.303-5.956-13.303-13.303
		c0-7.347,5.956-13.303,13.303-13.303c7.347,0,13.303,5.956,13.303,13.303C144.837,96.639,138.881,102.595,131.534,102.595z
		 M131.534,57.686c-7.347,0-13.303-5.956-13.303-13.303c0-7.347,5.956-13.303,13.303-13.303c7.347,0,13.303,5.956,13.303,13.303
		C144.837,51.73,138.881,57.686,131.534,57.686z M169.202,147.504c-7.347,0-13.303-5.956-13.303-13.303
		c0-7.347,5.956-13.303,13.303-13.303c7.347,0,13.303,5.956,13.303,13.303C182.505,141.548,176.549,147.504,169.202,147.504z
		 M169.202,102.595c-7.347,0-13.303-5.956-13.303-13.303c0-7.347,5.956-13.303,13.303-13.303c7.347,0,13.303,5.956,13.303,13.303
		C182.505,96.639,176.549,102.595,169.202,102.595z M169.202,57.686c-7.347,0-13.303-5.956-13.303-13.303
		c0-7.347,5.956-13.303,13.303-13.303c7.347,0,13.303,5.956,13.303,13.303C182.505,51.73,176.549,57.686,169.202,57.686z
		 M206.87,147.504c-7.347,0-13.303-5.956-13.303-13.303c0-7.347,5.956-13.303,13.303-13.303c7.347,0,13.303,5.956,13.303,13.303
		C220.173,141.548,214.217,147.504,206.87,147.504z M206.87,102.595c-7.347,0-13.303-5.956-13.303-13.303
		c0-7.347,5.956-13.303,13.303-13.303c7.347,0,13.303,5.956,13.303,13.303C220.173,96.639,214.217,102.595,206.87,102.595z
		 M206.87,57.686c-7.347,0-13.303-5.956-13.303-13.303c0-7.347,5.956-13.303,13.303-13.303c7.347,0,13.303,5.956,13.303,13.303
		C220.173,51.73,214.217,57.686,206.87,57.686z M244.538,147.504c-7.347,0-13.303-5.956-13.303-13.303
		c0-7.347,5.956-13.303,13.303-13.303c7.347,0,13.303,5.956,13.303,13.303C257.841,141.548,251.885,147.504,244.538,147.504z
		 M244.538,102.595c-7.347,0-13.303-5.956-13.303-13.303c0-7.347,5.956-13.303,13.303-13.303c7.347,0,13.303,5.956,13.303,13.303
		C257.841,96.639,251.885,102.595,244.538,102.595z M244.538,57.686c-7.347,0-13.303-5.956-13.303-13.303
		c0-7.347,5.956-13.303,13.303-13.303c7.347,0,13.303,5.956,13.303,13.303C257.841,51.73,251.885,57.686,244.538,57.686z"/>
</g>
<g>
</g>
<g>
</g>
<g>
</g>
<g>
</g>
<g>
</g>
<g>
</g>
<g>
</g>
<g>
</g>
<g>
</g>
<g>
</g>
<g>
</g>
<g>
</g>
<g>
</g>
<g>
</g>
<g>
</g>
</svg>
